X:1
T: The Flagstaff and Cairn
C:Muriel A Johnstone
R:Strathspey
%Q: 128
K:A
M:4/4
L:1/16
|:E4|CE3 E3F A4 A3F|EA3 A3B c4 ce3|CE3 E3F A4 ((3ABc) |d3c BA3 B4 Be3|
CE3 E3F A4 A3F|EA3 A3B c3A ce3|f3g ((3agf) ea3 ce3|df3 FB3 A2G2 F2E2|
Ee3 e3c e4 e4|Aa3 a3g f2e2 d2c2|e3E d3E c3A EA3|FB3 B3A A2G2 F2E2|
Ee3 e3c e4 e4|Aa3 a3b a2g2 f2e2|e3E d3E c3A EA3|FA3 A3G A4:|
